X:1
T:[ID 2-52a]
T:[ID 2-52a]
T:Bezeichnung standardisiert: Menuett Menuet 10.
T:Urheber unbekannt Erstbeleg: 1767 (Datum in der schriftlichen Quelle) Datum in der hier transkribierten schriftlichen Quelle: 1776 - 1791
C:Urheber unbekannt
C:Erstbeleg: 1767 (Datum in der schriftlichen Quelle)
C:Datum in der hier transkribierten schriftlichen Quelle: 1776 - 1791
L:1/8
M:3/4
K:D
V:1 treble 
V:1
 D4 (3ABc | .d2 .A2 .F2 | D4 (3ABc | .d2 .B2 .G2 | D2 af g2 | A2 ge f2 | ed c2 B2 |{c} TB4 A2 :: %8
 A4 (3efg | a2 fa g2 | A4 ef | g2 eg f2 |"^O)" d4 (3dcB | A2 G2 F2 |"^O)" d4 (3dcB | A2 G2 F2 | %16
 (3BAG F2 GE |{E} D6 :| %18

